!!!COM: Georges Bizet
!!!CNT: Francais
!!!TXO: Francais
!!!OTL: Adieux de l'Ho^tesse Arabe
!!!LYR: Victor Hugo
!!!ENC: Jacob Pegg
!!!YOR: Romantic French Song 1830-1870 -David Tunley, ed.,
!!!YOR: New York: Garland Publishing, Inc., 1995, Vol. 4
!!!ODT: 1867/
!!NB: Vocal melody and text only encoded.
!!NB: First instance of melodic material only encoded.
**kern	**silbe
*clef G2	*
*k[]	*
*M2/4	*
=4	=4
!!created: 5/2/03 8:09
!!proofed and posted: 5/5/03 12:50
!!edit time: 151 min.
4r	.
{8a	{Puis~
8b	~que
=5	=5
4cc	rien
8b	ne
8cc	l'ar-
=6	=6
4a	-re^te
(8b	en
8a)	|
=7	=7
(16g#	cet
16fn)	|
(16e	heu-
16d)	|
8e	-reux
8fn	pa-
=8	=8
2e}	-ys,}
=9	=9
8r	.
{8B	{Ni
8e	l'om-
8f	-bre
=10	=10
8e	du
8c	pal-
4e}	-mier,}
=11	=11
8r	.
{(16B	{ni
16c)	|
8d	le
8f	jau-
=12	=12
(16e	-ne
16d)	|
(16c	ma-
16d)	|
4e}	i2s,}
=13	=13
8r	.
{8e	{Ni
8f#	le
8gn	re-
=14	=14
8a	-pos,
8b	ni
8cc	l'a-
8e	-bon-
=15	=15
(4.g	-dan-
8f#)	|
=16	=16
2e}	-ce,}
=17	=17
2r	.
=18	=18
4r	.
{8a	{Ni
8b	de
=19	=19
4cc	voir
8b	a\
8cc	ta
=20	=20
4a	voix
(8b	bat-
8a)	|
=21	=21
(16g#	-tre
16fn)	|
(16e	le
16d)	|
8e	jeu-
8fn	-ne
=22	=22
[2e	sein,
=23	=23
8e]}	|}
{(16B	{De
16c)	|
8d	nos
8f	soeurs,
=24	=24
(16e	dont,
16d)	les
(16c	|
16d)	soirs,
(8e	|
8a)}	|}
=25	=25
8r	.
{(16d	{le
16e)	|
(16f	tour-
16e)	|
(16d	-noy-
16f)	|
=26	=26
(16e	-ant
16d)	|
(16c	es-
16d)	|
(8e	-saim
8a)}	|}
=27	=27
8r	.
{8e	{Cou-
(16d#	-ron-
16e)	-ne
(16f#	un
16g)	|
=28	=28
(16a	co^-
16b)	|
(16cc	-teau
16ddn)	|
8ee	de
8e	sa
=29	=29
(4.b	dan-
8a)	|
=30	=30
2g}	-se;}
=31	=31
4r	.
8r	.
{8b	{A-
=32	=32
[2dd	-dieu,
=33	=33
8dd]	|
8d	beau
8e-	vo-
8fn	-ya-
=34	=34
[2g	-geur,
=35	=35
4g]}	|}
8r	.
{8g	{He/-
=36	=36
(4a-	-las,
[4c)	|
=37	=37
8c]}	|}
8r	.
8r	.
{8B	{a-
=38	=38
2G}	-dieu!}
=39	=39
8r	.
{8g	{Oh!
8g	que
8an	n'es~
=40	=40
(4b-	~tu
8a)	|
8b-	de
=41	=41
(4g	ceux
8f)}	|}
{8g	{Qui
=42	=42
(16a	don-
16b-)	|
(16g	-nent
16b-)	|
8a	pour
8e	li-
=43	=43
4a	-mite
8a	a\
8bn	leurs
=44	=44
4ccn	pieds
8b	pa-
8ccn	-res-
=45	=45
8a}	-seux}
{(16b	{Leur
16a)	|
8g	toit
8a	de
=46	=46
(16b	bran-
16cc)	|
(16a	-ches
16cc)	|
8b	ou
8f#	de
=47	=47
[8b	toi-
16b]}	-les!}
16r	.
{8b	{Qui,
8cc	re^-
=48	=48
4ddn	-veurs,
8cc	sans
8ddn	en
=49	=49
4b	faire,
(8b	e/-
8cc)	|
=50	=50
8.dd	-cou-
16dd	-tent
8cc	les
8dd	re/-
=51	=51
8b}	-cits,}
8r	.
{8a#	{Et
8b	sou-
=52	=52
[2ee	-hai-
=53	=53
2ee_	|
=54	=54
4ee]	|
8dd#	-tent,
8ddn	le
=55	=55
(4cc#	soir,
8ccn)	|
8b	de-
=56	=56
(4a	-vant
8g#)	|
8gn	leur
=57	=57
(4f#	porte
8e#)	|
8en	as-
=58	=58
(12d	-sis,
12c#)}	|}
{12d	{De
(12B	s'en
12g#)	|
12f#	al-
=59	=59
(12e	-ler
12f#)	|
12g#	dans
(12a	les
12.ee;)	|
24dd	e/-
=60	=60
[2cc#	-toi-
=61	=61
(4cc#]	|
4b)	|
=62	=62
(4a	-les!
8a)}	|}
8r	.
=63	=63
4r	.
{(8g#	{He/-
8dd)	|
=64	=64
(4cc#	-las!
4a)}	|}
=65	=65
4r	.
{(8g#	{A-
8dd)	|
=66	=66
(4cc#	-dieu!
4a)}	|}
=67	=67
4r	.
{(4a	{A-
=68	=68
2ffn;)}	-dieu!}
=69	=69
8r;	.
{8B-	{beau
8c	vo-
8d	-ya-
=70	=70
[2e	-geur!
=71	=71
2e_	|
=72	=72
4e]}	|}
4r	.
!!This piece has repeated material, but not in a clear
!!sectional form, so I started omitting melodically identical
!!material phrase by phrase. Such was the case with mm. 76-94.
=95	=95
8r	.
{8d	{Pour
8gn	chas-
8d	-ser
=96	=96
(16e	de
16d)	|
(16e	ton
16f)	|
[4g	front
=97	=97
8g]	|
(16d	les
16e)	|
(16f	mou-
16a)	|
(16g	-che-
16f)	|
=98	=98
(16e	-rons
16f)	|
(16g	me/-
16a)	|
4g}	-chants,}
=99	=99
12r	.
{(12g	{Un
12f#)	|
(12g	e/-
12a)	|
12b	-ven-
=100	=100
(12cc	-tail
12ee)	|
12dd	de
(12cc	feuil-
12e)	|
12g	-les
=101	=101
(4.b	ver-
8a)	|
=102	=102
2g}	-tes.}
=103	=103
2r	.
=104	=104
{2dd	{Si
=105	=105
8dd	tu
8dd	ne
8.dd	re-
16cc	-viens
=106	=106
(2cc	pas,
=107	=107
4b)}	|}
4r	.
=108	=108
{4.cc	{Songe
8cc	un
=109	=109
4cc	peu
8.b-	quel-
16a-	-que-
=110	=110
(2a-	-fois
=111	=111
4g)}	|}
4r	.
!!substituted 4r for pickup to next (repeated) phrase
=126	=126
4r	.
{8dd#	{Sou-
8ddn	-viens~
=127	=127
4cc#	~toi,
8ccn	car
8b	peut~
=128	=128
[8a	~e^-
16a]}	-tre,}
16r	.
{8g#	{o^
8gn	ra-
=129	=129
4f#	-pide
8fn	e/-
8e	-tran-
=130	=130
(12d	-ger,
12c#)	|
12d	Ton
(12a	sou-
12g)	|
12f	-ve-
=131	=131
(12e	-nir
12d)	|
12cn	reste
(12B	a
12.cn)	|
24d	plus
=132	=132
[2c	d'u-
=133	=133
(4c]	|
4B)	|
=134	=134
2A}	-ne!}
!!mm.135-140 repeated
=141	=141
8r;	.
{8B-	{bel
8cn	e/-
8d	-tran-
=142	=142
4e}	-ger!}
6r	.
{12e	{He/-
=143	=143
4f}	-las!}
6r	.
{12f	{a-
=144	=144
4f#}	-dieu!}
4r	.
=145	=145
{4.g#;	{Sou-
8g#	-viens~
=146	=146
8.a	~toi
16b	|
16cc	|
16b	|
16a	|
16gn	|
=147	=147
8.f	|
16e	|
16d	|
16e	|
16f	|
16g	|
=148	=148
16a	|
16b	|
16cc	|
16dd	|
16cc	|
16b	|
16a	|
16g	|
=149	=149
16f	|
16e	|
16d	|
16c	|
16d	|
16e	|
16f	|
16g	|
=150	=150
16a	|
16b	|
16cc	|
16dd	|
[4ee	|
=151	=151
(16ee]}	|}
{16ff	{|
16dd#	|
16ff	|
[4ee)	|
=152	=152
(16ee]	|
16ff	|
16dd#	|
16ff	|
16ee	|
16ff	|
16dd#	|
16ff	|
=153	=153
2eet;)	|
16dd#q	|
16eeq	|
16ffq	|
16eeq	|
=154	=154
(4.cc;	|
24b	|
24cc	|
24b	|
=155	=155
[2a)	|
=156	=156
4a]}	|}
4r;	.
*-	*-
